svg/UnitedNationsOCHA-Humanitarian/socioeconomic_and_development_debris_management_icon.svg

<svg xmlns="http://www.w3.org/2000/svg" viewBox="0 0 32 32" enable-background="new 0 0 32 32"><path d="m23.758 25.29l.953 1.107-17.612.006.215-1.362 1.935-1.074-.3-2.278 2.566-.226.133-1.184 2.981-.257.172-2.131.513-.682 1.192.257.138 1.134 1.907-.118.12 2.146 2.146.834.12 1.669c.185.257 1.121-.153 1.283.085-.209.988 1.253 1.157 1.253 1.157l.285.917m-2.33-7.155l-.898-.306c-.306.235-.418.481-.331.737l.45.518.678-.227c.246-.082.33-.236.257-.453-.026-.077-.074-.169-.156-.269m-.572-2.39c-.198-.095-.403-.111-.625-.038-.117.038-.239.116-.375.233l.036 1.064 1.031-.128c.27-.308.371-.558.309-.75-.052-.153-.175-.281-.376-.381m3.163 1.478l.007.021c-.039.013-.226-.029-.563-.136-.163-.056-.327-.117-.491-.181-.232.079-.378.311-.435.695-.056.384-.019.771.109 1.159.035.104.116.219.244.35l.221.206.379-.02c.429-.187.672-.289.738-.312.154-.094.259-.287.313-.578.053-.294.032-.571-.06-.844-.101-.306-.254-.429-.462-.36m-1.663 3.169l-.224.81c.166.145.404.246.724.293l.753-.253-.381-1.141-.872.291m3.834-1.458l-.225.81c.167.146.404.245.725.294l.753-.252-.383-1.144-.87.292m.555 6.073l-.224.81c.168.146.405.245.724.294l.755-.253-.383-1.142-.872.291m-.212-3.591c-.438-.485-.977-.621-1.621-.406l-.095.031c-.305.27-.557.663-.768 1.171-.204.485-.264.867-.172 1.146.008.021.208.204.596.553.412.338.642.564.69.678l1.221-.409c.141-.047.277-.112.407-.196.133-.085.242-.185.333-.291.089-.106.154-.216.197-.323.039-.108.045-.211.011-.31-.264-.793-.53-1.34-.799-1.644m-12.461-5.186c-.205 1.221-.83 2.347-.83 2.347s-1.286.099-2.479-.227c-1.192-.325-3.03-3.347-3.03-3.347l1.881-1.206-2.264-3.75-1.762-.385-.786-1.227-.343.219-.462-.722 3.644-2.334.463.72-.344.22.789 1.229-.391 1.781 2.258 3.737 1.873-1.203c0 0 1.983 2.931 1.78 4.148m-8.1-7.114l1.58.347.345-1.58-.648-1.014-1.927 1.235.65 1.012"/></svg>

<?xml version="1.0" encoding="UTF-8" standalone="no"?>
<!-- Generator: Adobe Illustrator 16.0.3, SVG Export Plug-In . SVG Version: 6.00 Build 0)  -->

<svg
   xmlns:dc="http://purl.org/dc/elements/1.1/"
   xmlns:cc="http://creativecommons.org/ns#"
   xmlns:rdf="http://www.w3.org/1999/02/22-rdf-syntax-ns#"
   xmlns:svg="http://www.w3.org/2000/svg"
   xmlns="http://www.w3.org/2000/svg"
   xmlns:sodipodi="http://sodipodi.sourceforge.net/DTD/sodipodi-0.dtd"
   xmlns:inkscape="http://www.inkscape.org/namespaces/inkscape"
   version="1.1"
   id="Layer_1"
   x="0px"
   y="0px"
   width="32px"
   height="32px"
   viewBox="0 0 32 32"
   enable-background="new 0 0 32 32"
   xml:space="preserve"
   inkscape:version="0.48.4 r9939"
   sodipodi:docname="socioeconomic_and_development_debris_management_icon.svg"><metadata
     id="metadata9"><rdf:RDF><cc:Work
         rdf:about=""><dc:format>image/svg+xml</dc:format><dc:type
           rdf:resource="http://purl.org/dc/dcmitype/StillImage" /></cc:Work></rdf:RDF></metadata><defs
     id="defs7" /><sodipodi:namedview
     pagecolor="#ffffff"
     bordercolor="#666666"
     borderopacity="1"
     objecttolerance="10"
     gridtolerance="10"
     guidetolerance="10"
     inkscape:pageopacity="0"
     inkscape:pageshadow="2"
     inkscape:window-width="1360"
     inkscape:window-height="744"
     id="namedview5"
     showgrid="false"
     inkscape:zoom="23.8125"
     inkscape:cx="16"
     inkscape:cy="16"
     inkscape:window-x="0"
     inkscape:window-y="24"
     inkscape:window-maximized="1"
     inkscape:current-layer="Layer_1" /><path
     fill="#407CCA"
     d="M23.758,25.29l0.953,1.107L7.099,26.403l0.215-1.362l1.935-1.074l-0.3-2.278l2.566-0.226l0.133-1.184  l2.981-0.257l0.172-2.131l0.513-0.682l1.192,0.257l0.138,1.134l1.907-0.118l0.12,2.146l2.146,0.834l0.12,1.669  c0.185,0.257,1.121-0.153,1.283,0.085c0.166,0.24-0.148-0.234,0,0c-0.209,0.988,1.253,1.157,1.253,1.157L23.758,25.29z   M21.428,18.135l-0.898-0.306c-0.306,0.235-0.418,0.481-0.331,0.737l0.45,0.518l0.678-0.227c0.246-0.082,0.33-0.236,0.257-0.453  C21.558,18.327,21.51,18.235,21.428,18.135z M20.856,15.745c-0.198-0.095-0.403-0.111-0.625-0.038  c-0.117,0.038-0.239,0.116-0.375,0.233l0.036,1.064l1.031-0.128c0.27-0.308,0.371-0.558,0.309-0.75  C21.18,15.973,21.057,15.845,20.856,15.745z M24.019,17.223l0.007,0.021c-0.039,0.013-0.226-0.029-0.563-0.136  c-0.163-0.056-0.327-0.117-0.491-0.181c-0.232,0.079-0.378,0.311-0.435,0.695c-0.056,0.384-0.019,0.771,0.109,1.159  c0.035,0.104,0.116,0.219,0.244,0.35l0.221,0.206l0.379-0.02c0.429-0.187,0.672-0.289,0.738-0.312  c0.154-0.094,0.259-0.287,0.313-0.578c0.053-0.294,0.032-0.571-0.06-0.844C24.38,17.277,24.227,17.154,24.019,17.223z   M22.356,20.392l-0.224,0.81c0.166,0.145,0.404,0.246,0.724,0.293l0.753-0.253l-0.381-1.141L22.356,20.392z M26.19,18.934  l-0.225,0.81c0.167,0.146,0.404,0.245,0.725,0.294l0.753-0.252l-0.383-1.144L26.19,18.934z M26.745,25.007l-0.224,0.81  c0.168,0.146,0.405,0.245,0.724,0.294L28,25.858l-0.383-1.142L26.745,25.007z M26.533,21.416c-0.438-0.485-0.977-0.621-1.621-0.406  l-0.095,0.031c-0.305,0.27-0.557,0.663-0.768,1.171c-0.204,0.485-0.264,0.867-0.172,1.146c0.008,0.021,0.208,0.204,0.596,0.553  c0.412,0.338,0.642,0.564,0.69,0.678l1.221-0.409c0.141-0.047,0.277-0.112,0.407-0.196c0.133-0.085,0.242-0.185,0.333-0.291  c0.089-0.106,0.154-0.216,0.197-0.323c0.039-0.108,0.045-0.211,0.011-0.31C27.068,22.267,26.802,21.72,26.533,21.416z M14.072,16.23  c-0.205,1.221-0.83,2.347-0.83,2.347s-1.286,0.099-2.479-0.227c-1.192-0.325-3.027-3.347-3.027-3.347l1.881-1.206l-2.264-3.75  L5.591,9.662L4.805,8.435L4.462,8.654L4,7.932l3.644-2.334l0.463,0.72l-0.344,0.22l0.789,1.229L8.161,9.548l2.258,3.737l1.873-1.203  C12.292,12.082,14.275,15.013,14.072,16.23z M5.972,9.116l1.58,0.347l0.345-1.58L7.249,6.869L5.322,8.104L5.972,9.116z"
     id="path3"
     style="fill:#000000" /></svg>
